X:1
T:Title
%%score { ( 1 4 5 ) | ( 2 3 ) }
L:1/8
M:4/4
K:G
V:1 treble nm="Grand Piano"
V:4 treble 
V:5 treble 
V:2 bass 
V:3 bass 
V:1
 z4 z2[Q:1/4=100] D2 | GFGB D2 D2 | EDEF G3 [DFA] | [DGB]2 [DGB]2 [DGd]2 [DGB]2 |[M:3/4] [FA]6 | %5
[M:1/4] [FA][GB] |[M:4/4] [Ac][^GB][Ac]d B3 =G |[M:3/4] AG FE D2 |[M:1/4] [FA][GB] | %9
[M:4/4] [Ac][^GB][Ac]d B3 =G |[M:3/4] AG FE D2 |[M:1/4] [Fd]2 |[M:4/4] d3 B AB ^c2 | [Fd]6 d2 | %14
 d4 z4 | A6 z2 | B4 z4 | z4 z2 G2 | d2 d2 d2 B2 | [Ge]2 [Ge]2 [Ge]2 cA | %20
 [B,DG]3 [A,DF] [DFB]2 [CFA]2 |[M:3/4] [B,G]6 |] %22
V:2
 z4 z2 D,2 | G,F,G,B, D,2 D,2 | E,D,E,F, G,3 D, | G,,2 G,,2 B,,2 G,,2 |[M:3/4] [D,D]6 | %5
[M:1/4] [D,D]2 |[M:4/4] [D,D]2 z[K:treble] B [G,DG]3 G, |[M:3/4] A,G,[K:bass] F,E, D,2 | %8
[M:1/4] [D,D]2 |[M:4/4] [D,D]2 z[K:treble] B [G,DG]3 G, |[M:3/4] A,G,[K:bass] F,E, D,2 | %11
[M:1/4] [D,A,]2 |[M:4/4][K:treble] [G,B,G]3 [G,DG] [A,DG]2 [A,G]2 | [D,A,]6 z2 | %14
 z2 B,2 [CE]2 [B,D]2 | z2 [A,C]2 [A,C]2 z2 | G,,2 [G,B,]2 C,2 [G,C]2 | z2 [G,B,]2 [G,B,]2 G,2 | %18
 [G,B,G]2 [A,CF]2 [B,DG]2 [G,DG]2 | [C,C]2 [C,C]2 [C,G,]2 A,C | D,3 D, D,2 D,2 |[M:3/4] G,,6 |] %22
V:3
 x8 | x8 | x8 | x8 |[M:3/4] x6 |[M:1/4] x2 |[M:4/4] z2 [D,D]2[K:treble] z4 |[M:3/4] x2[K:bass] x4 | %8
[M:1/4] x2 |[M:4/4] z2 [D,D]2[K:treble] z4 |[M:3/4] x2[K:bass] x4 |[M:1/4] x2 | %12
[M:4/4][K:treble] x8 | x8 | G,,6 z2 | D,6 z2 | x8 | G,,6 z2 | x8 | z4 z2 C,2 | x8 |[M:3/4] x6 |] %22
V:4
 x8 | x8 | x8 | x8 |[M:3/4] x6 |[M:1/4] x2 |[M:4/4] x8 |[M:3/4] x6 |[M:1/4] x2 |[M:4/4] x8 | %10
[M:3/4] x6 |[M:1/4] x2 |[M:4/4] x8 | x8 | z2 z B c2 B2 | z2 D2 D2 A2 | z2 z A G2 E2 | %17
 D2 D2 D2 z B | x8 | z4 z2 E2 | x8 |[M:3/4] x6 |] %22
V:5
 x8 | x8 | x8 | x8 |[M:3/4] x6 |[M:1/4] x2 |[M:4/4] x8 |[M:3/4] x6 |[M:1/4] x2 |[M:4/4] x8 | %10
[M:3/4] x6 |[M:1/4] x2 |[M:4/4] x8 | x8 | z2 D2 z4 | x8 | z2 D2 z4 | x8 | x8 | x8 | x8 | %21
[M:3/4] x6 |] %22

